material/.icons/material/silverware-variant.svg

<svg xmlns="http://www.w3.org/2000/svg" viewBox="0 0 24 24"><path d="M8.1 13.34L3.91 9.16a4.008 4.008 0 010-5.66l7.02 7-2.83 2.84m5.31-.34l6.88 6.88-1.41 1.41L12 14.41l-6.88 6.88-1.41-1.41 9.65-9.66-.2-.22a1.98 1.98 0 010-2.81l4.34-4.37.93.92L15.19 7l.96.94 3.24-3.25.92.92-3.25 3.24.94.96 3.26-3.25.92.94-4.37 4.34c-.78.78-2.04.78-2.81 0l-.22-.2L13.41 13z"/></svg>

<?xml version="1.0" encoding="UTF-8"?><!DOCTYPE svg PUBLIC "-//W3C//DTD SVG 1.1//EN" "http://www.w3.org/Graphics/SVG/1.1/DTD/svg11.dtd"><svg xmlns="http://www.w3.org/2000/svg" xmlns:xlink="http://www.w3.org/1999/xlink" version="1.1" id="mdi-silverware-variant" width="24" height="24" viewBox="0 0 24 24"><path d="M8.1,13.34L3.91,9.16C2.35,7.59 2.35,5.06 3.91,3.5L10.93,10.5L8.1,13.34M13.41,13L20.29,19.88L18.88,21.29L12,14.41L5.12,21.29L3.71,19.88L13.36,10.22L13.16,10C12.38,9.23 12.38,7.97 13.16,7.19L17.5,2.82L18.43,3.74L15.19,7L16.15,7.94L19.39,4.69L20.31,5.61L17.06,8.85L18,9.81L21.26,6.56L22.18,7.5L17.81,11.84C17.03,12.62 15.77,12.62 15,11.84L14.78,11.64L13.41,13Z" /></svg>
